X: 34998
T: Rogue's March, The
R: jig
M: 6/8
K: Dmajor
F2F FGA|B2B B3|A2A A2B|A2G F2E|
F2F FGA|BAB B3|ABc d2F|EFE D3:|
d3 c3|B3 ABc|d3 c3|B3 A2G|
F2F FGA|B2B B3|ABc d2F|EFE D3:|

